src/assets/filled/Hierarchy3.svg

<?xml version="1.0" encoding="UTF-8"?>
<svg width="24" height="24" viewBox="0 0 24 24" xmlns="http://www.w3.org/2000/svg">
 <path d="m5 8c1.6568 0 3-1.3432 3-3s-1.3432-3-3-3-3 1.3432-3 3 1.3432 3 3 3z"/>
 <path d="m19 15c1.6569 0 3-1.3431 3-3s-1.3431-3-3-3-3 1.3431-3 3 1.3431 3 3 3z"/>
 <path d="m5 22c1.6568 0 3-1.3431 3-3s-1.3432-3-3-3-3 1.3431-3 3 1.3432 3 3 3z"/>
 <path d="m5 16.75c-0.41 0-0.75-0.34-0.75-0.75v-8c0-0.41 0.34-0.75 0.75-0.75s0.75 0.34 0.75 0.75c0 2.19 1.06 3.25 3.25 3.25h7c0.41 0 0.75 0.34 0.75 0.75s-0.34 0.75-0.75 0.75h-7c-1.36 0-2.45-0.35-3.25-1.01v4.26c0 0.41-0.34 0.75-0.75 0.75z"/>
</svg>

<svg width="24" height="24" viewBox="0 0 24 24"  xmlns="http://www.w3.org/2000/svg">
<path d="M5 8C6.65685 8 8 6.65685 8 5C8 3.34315 6.65685 2 5 2C3.34315 2 2 3.34315 2 5C2 6.65685 3.34315 8 5 8Z" />
<path d="M19 15C20.6569 15 22 13.6569 22 12C22 10.3431 20.6569 9 19 9C17.3431 9 16 10.3431 16 12C16 13.6569 17.3431 15 19 15Z" />
<path d="M5 22C6.65685 22 8 20.6569 8 19C8 17.3431 6.65685 16 5 16C3.34315 16 2 17.3431 2 19C2 20.6569 3.34315 22 5 22Z" />
<path d="M5 16.75C4.59 16.75 4.25 16.41 4.25 16V8C4.25 7.59 4.59 7.25 5 7.25C5.41 7.25 5.75 7.59 5.75 8C5.75 10.19 6.81 11.25 9 11.25H16C16.41 11.25 16.75 11.59 16.75 12C16.75 12.41 16.41 12.75 16 12.75H9C7.64 12.75 6.55 12.4 5.75 11.74V16C5.75 16.41 5.41 16.75 5 16.75Z" />
</svg>
